src/static_assets/images/logo-white.svg

<svg xmlns="http://www.w3.org/2000/svg" width="30" height="44" viewBox="0 0 30 44">
  <defs>
    <filter id="logo-white-a">
      <feColorMatrix in="SourceGraphic" values="0 0 0 0 1.000000 0 0 0 0 1.000000 0 0 0 0 1.000000 0 0 0 1.000000 0"/>
    </filter>
  </defs>
  <g fill="none" fill-rule="evenodd" filter="url(#logo-white-a)">
    <path fill="#F52727" fill-rule="nonzero" d="M5.75670388,38.2364318 L-4.00305767e-15,38.2364318 L-4.00305767e-15,11.9817306 L24.162901,0 L18.4061971,11.4183764 L5.75670388,17.6909188 L5.75670388,38.2364318 Z M17.2925628,30.7542551 L17.2925628,43.94562 L5.75670388,43.94562 L5.75670388,38.2364318 L11.5358589,38.2364318 L11.5358589,25.0454951 L18.4061971,11.4183764 L29.9196049,5.70918822 L17.2925628,30.7542551 Z"/>
  </g>
</svg>

<svg xmlns="http://www.w3.org/2000/svg" width="30" height="44"><path fill="#FFFFFF" fill-rule="nonzero" d="M5.76 38.24H0V11.98L24.16 0l-5.75 11.42-12.65 6.27v20.55zm11.53-7.49v13.2H5.76v-5.71h5.78v-13.2l6.87-13.62L29.92 5.7 17.29 30.75z"/></svg>
